svg/SJJB-OpenStreetMapIcons/transport/port.svg

<?xml version="1.0" encoding="UTF-8" standalone="no"?>
<!-- Created with Inkscape (http://www.inkscape.org/) -->
<svg
   xmlns:dc="http://purl.org/dc/elements/1.1/"
   xmlns:cc="http://creativecommons.org/ns#"
   xmlns:rdf="http://www.w3.org/1999/02/22-rdf-syntax-ns#"
   xmlns:svg="http://www.w3.org/2000/svg"
   xmlns="http://www.w3.org/2000/svg"
   xmlns:sodipodi="http://sodipodi.sourceforge.net/DTD/sodipodi-0.dtd"
   xmlns:inkscape="http://www.inkscape.org/namespaces/inkscape"
   version="1.0"
   width="580"
   height="580"
   id="svg2"
   sodipodi:version="0.32"
   inkscape:version="0.46"
   sodipodi:docname="port.svg"
   sodipodi:docbase="s:\Data\FacilityIcons"
   inkscape:output_extension="org.inkscape.output.svg.inkscape">
  <metadata
     id="metadata2975">
    <rdf:RDF>
      <cc:Work
         rdf:about="">
        <dc:format>image/svg+xml</dc:format>
        <dc:type
           rdf:resource="http://purl.org/dc/dcmitype/StillImage" />
			  <cc:license
           rdf:resource="http://web.resource.org/cc/PublicDomain" />
        <dc:language>en</dc:language>
      </cc:Work>
    </rdf:RDF>
  </metadata>
  <sodipodi:namedview
     inkscape:window-height="947"
     inkscape:window-width="1048"
     inkscape:pageshadow="2"
     inkscape:pageopacity="0.0"
     guidetolerance="10.0"
     gridtolerance="10.0"
     objecttolerance="10.0"
     borderopacity="1.0"
     bordercolor="#666666"
     pagecolor="#ffffff"
     id="base"
     inkscape:zoom="0.92167712"
     inkscape:cx="301.5186"
     inkscape:cy="281.19503"
     inkscape:window-x="91"
     inkscape:window-y="25"
     inkscape:current-layer="svg2"
     showgrid="false" />
  <defs
     id="defs4">
    <inkscape:perspective
       sodipodi:type="inkscape:persp3d"
       inkscape:vp_x="0 : 290 : 1"
       inkscape:vp_y="0 : 1000 : 0"
       inkscape:vp_z="580 : 290 : 1"
       inkscape:persp3d-origin="290 : 193.33333 : 1"
       id="perspective2441" />
    <inkscape:perspective
       id="perspective3452"
       inkscape:persp3d-origin="30 : 20 : 1"
       inkscape:vp_z="60 : 30 : 1"
       inkscape:vp_y="0 : 1000 : 0"
       inkscape:vp_x="0 : 30 : 1"
       sodipodi:type="inkscape:persp3d" />
    <symbol
       viewBox="244.5 110 489 219.9"
       id="symbol-university">
      <path
         id="path4460"
         d="M79,43l57,119c0,0,21-96,104-96s124,106,124,106l43-133l82-17L0,17L79,43z" />
      <path
         id="path4462"
         d="M94,176l-21,39"
         stroke-width="20"
         stroke="#000000"
         fill="none" />
      <path
         id="path4464"
         d="M300,19c0,10.5-22.6,19-50.5,19S199,29.5,199,19s22.6-19,50.5-19S300,8.5,300,19z" />
      <path
         id="path4466"
         d="M112,216l-16-38L64,88c0,0-9-8-4-35s16-24,16-24"
         stroke-width="20"
         stroke="#000000"
         ill="none" />
    </symbol>
    <inkscape:perspective
       id="perspective4471"
       inkscape:persp3d-origin="372.04724 : 350.78739 : 1"
       inkscape:vp_z="744.09448 : 526.18109 : 1"
       inkscape:vp_y="0 : 1000 : 0"
       inkscape:vp_x="0 : 526.18109 : 1"
       sodipodi:type="inkscape:persp3d" />
    <inkscape:perspective
       id="perspective4668"
       inkscape:persp3d-origin="6 : 4 : 1"
       inkscape:vp_z="12 : 6 : 1"
       inkscape:vp_y="0 : 1000 : 0"
       inkscape:vp_x="0 : 6 : 1"
       sodipodi:type="inkscape:persp3d" />
    <marker
       viewBox="0 0 10 10"
       refY="5"
       refX="10"
       orient="auto"
       markerWidth="4"
       markerUnits="strokeWidth"
       markerHeight="3"
       id="ArrowStart">
      <path
         id="path3634"
         d="M 10 0 L 0 5 L 10 10 z" />
    </marker>
    <marker
       viewBox="0 0 10 10"
       refY="5"
       refX="0"
       orient="auto"
       markerWidth="4"
       markerUnits="strokeWidth"
       markerHeight="3"
       id="ArrowEnd">
      <path
         id="path3631"
         d="M 0 0 L 10 5 L 0 10 z" />
    </marker>
    <inkscape:perspective
       id="perspective2510"
       inkscape:persp3d-origin="306.082 : 204.39034 : 1"
       inkscape:vp_z="612.164 : 306.58551 : 1"
       inkscape:vp_y="0 : 1000 : 0"
       inkscape:vp_x="0 : 306.58551 : 1"
       sodipodi:type="inkscape:persp3d" />
  </defs>
  <g
     id="g1327">
    <path
       d="M 66.275,1.768 C 24.94,1.768 1.704,23.139 1.704,66.804 L 1.704,516.927 C 1.704,557.771 22.599,579.156 63.896,579.156 L 515.92,579.156 C 557.227,579.156 578.149,558.841 578.149,516.927 L 578.149,66.804 C 578.149,24.203 557.227,1.768 514.628,1.768 C 514.624,1.768 66.133,1.625 66.275,1.768 z "
       style="fill:#111;stroke:#eee;stroke-width:3.40799999"
       id="path1329" />
  </g>
  <g
     id="layer3"
     inkscape:label="Layout"
     style="display:none;stroke:#757575;stroke-opacity:1"
     transform="matrix(48.14969,0,0,48.14969,-536.27327,-33.306752)">
    <rect
       style="fill:none;stroke:#757575;stroke-width:0.10000000000000001;stroke-miterlimit:4;stroke-dasharray:none;stroke-opacity:1;display:inline"
       id="rect4134"
       width="10"
       height="10"
       x="1"
       y="1" />
    <rect
       style="fill:none;stroke:#757575;stroke-width:0.10000000000000001;stroke-miterlimit:4;stroke-dasharray:none;stroke-opacity:1;display:inline"
       id="rect4136"
       width="8"
       height="8"
       x="2"
       y="2" />
  </g>
  <g
     id="g3640"
     transform="matrix(1.088903,0,0,1.088903,-42.543252,-50.246524)">
    <g
       id="g3642">
      <path
         d="M 337.192,529.286 C 359.675,519.554 370.166,520.87 388.67,530.551 C 407.175,540.233 425.678,540.233 447.503,529.1 C 469.325,517.966 487.087,524.313 496.942,530.286 C 505.192,535.286 513.442,537.286 525.786,537.286 L 525.786,492.756 C 507.192,492.786 499.216,486.464 499.216,486.464 C 480.002,474.604 462.389,476.95 438.192,489.536 C 424.39,496.712 402.503,494.824 387.008,486.746 C 365.657,475.614 353.569,478.336 331.192,488.286 C 313.855,495.994 298.208,495.99 280.942,488.286 C 258.579,478.308 247.046,475.614 225.695,486.746 C 210.201,494.824 187.994,496.712 174.192,489.536 C 149.994,476.95 132.702,474.604 113.486,486.464 C 113.486,486.464 105.192,492.756 86.9168,492.756 L 86.9168,537.286 C 98.4418,537.286 107.442,535.036 115.192,530.286 C 125.027,524.258 143.376,517.966 165.201,529.1 C 187.026,540.233 205.53,540.233 224.034,530.551 C 242.538,520.87 252.793,519.126 275.276,528.858 C 297.101,539.991 318.688,538.967 337.192,529.286 z"
         id="path3644"
         style="fill:#ffffff;stroke:none" />
      <path
         style="fill:#ffffff;stroke:none"
         d="M 256.4375 37.03125 L 256.4375 85.03125 L 200.65625 85.03125 L 200.65625 120.84375 L 160.84375 120.84375 L 160.84375 188.84375 L 140.1875 197.25 C 127.78816 202.5203 122.61441 213.59708 127.78125 225.71875 L 161.875 304.25 L 161.875 413.59375 C 139.78711 413.56834 120.9765 386.73546 80.78125 409.15625 C 80.781248 409.15626 69.280572 415.57315 51.84375 416 L 51.84375 462.875 C 65.469194 461.86341 71.9897 459.67635 82.3125 453.90625 C 93.273397 447.77792 113.32844 441.81474 137.09375 453.9375 C 160.86015 466.06026 181.00719 466.07292 201.15625 455.53125 C 221.30531 444.98958 238.86222 444.44989 257.71875 453.9375 C 281.48516 466.06026 300.13788 466.19668 324.09375 454.21875 C 343.42179 444.41862 360.78953 444.98958 380.9375 455.53125 C 401.08657 466.07292 421.23469 466.06026 445 453.9375 C 468.7653 441.81474 488.70199 447.9554 499.75 453.90625 C 509.45322 459.13191 516.27611 461.86341 530.25 462.875 L 530.25 415.5625 C 512.46495 415.13566 501.3125 408.71875 501.3125 408.71875 C 460.19226 386.28736 442.29114 413.59375 420.1875 413.59375 L 420.1875 304.25 L 454.3125 225.71875 C 459.47824 213.59709 454.30559 202.52029 441.90625 197.25 L 421.25 188.84375 L 421.25 120.84375 L 381.4375 120.84375 L 381.4375 85.03125 L 325.65625 85.03125 L 325.65625 37.03125 L 291.03125 37.03125 L 256.4375 37.03125 z M 230.09375 113.46875 L 291.03125 113.46875 L 352 113.46875 L 352 148.75 L 391.78125 148.75 L 391.78125 176.1875 L 291.03125 134.625 L 190.3125 176.1875 L 190.3125 148.75 L 230.09375 148.75 L 230.09375 113.46875 z "
         transform="matrix(0.9183554,0,0,0.9183554,39.069827,46.144169)"
         id="path3646" />
    </g>
  </g>
</svg>

<svg xmlns="http://www.w3.org/2000/svg" viewBox="0 0 580 580"><path d="m66.28 1.768c-41.34 0-64.57 21.371-64.57 65.04v450.12c0 40.844 20.895 62.23 62.19 62.23h452.02c41.31 0 62.23-20.315 62.23-62.23v-450.12c0-42.601-20.922-65.04-63.52-65.04-.004 0-448.5-.143-448.35 0z" fill="#111" stroke="#eee" stroke-width="3.408"/><g transform="matrix(1.0889 0 0 1.0889-42.543-50.25)" fill="#fff"><path d="m337.19 529.29c22.483-9.732 32.974-8.416 51.48 1.265 18.505 9.682 37.01 9.682 58.833-1.451 21.822-11.134 39.584-4.787 49.44 1.186 8.25 5 16.5 7 28.844 7v-44.53c-18.594.03-26.57-6.292-26.57-6.292-19.214-11.86-36.827-9.514-61.02 3.072-13.802 7.176-35.689 5.288-51.18-2.79-21.351-11.132-33.439-8.41-55.816 1.54-17.337 7.708-32.984 7.704-50.25 0-22.363-9.978-33.896-12.672-55.25-1.54-15.494 8.08-37.701 9.966-51.5 2.79-24.2-12.586-41.49-14.932-60.706-3.072 0 0-8.294 6.292-26.569 6.292v44.53c11.525 0 20.525-2.25 28.28-7 9.835-6.03 28.18-12.32 50.01-1.186 21.825 11.133 40.33 11.133 58.833 1.451 18.504-9.681 28.759-11.425 51.24-1.693 21.825 11.133 43.41 10.11 61.916.428"/><path d="m256.44 37.03v48h-55.781v35.813h-39.813v68l-20.656 8.406c-12.399 5.27-17.573 16.347-12.406 28.469l34.09 78.53v109.34c-22.09-.025-40.898-26.858-81.09-4.438 0 0-11.501 6.417-28.938 6.844v46.875c13.625-1.012 20.15-3.199 30.469-8.969 10.961-6.128 31.02-12.09 54.781.031 23.766 12.12 43.913 12.135 64.06 1.594 20.15-10.542 37.706-11.08 56.56-1.594 23.766 12.12 42.42 12.259 66.37.281 19.328-9.8 36.696-9.229 56.844 1.313 20.15 10.542 40.3 10.529 64.06-1.594 23.765-12.12 43.702-5.982 54.75-.031 9.703 5.226 16.526 7.957 30.5 8.969v-47.31c-17.785-.427-28.938-6.844-28.938-6.844-41.12-22.431-59.02 4.875-81.12 4.875v-109.34l34.12-78.53c5.166-12.12-.007-23.2-12.406-28.469l-20.656-8.406v-68h-39.813v-35.813h-55.781v-48h-34.625-34.594m-26.344 76.44h60.938 60.969v35.28h39.781v27.438l-100.75-41.563-100.72 41.563v-27.438h39.781v-35.28" transform="matrix(.91836 0 0 .91836 39.07 46.14)"/></g></svg>
